X:17774
T:Trip to Holland. JC.098
M:9/8
L:1/8
Q:110
S:John Clare,Poet,Helpston. (1793-1864)
R:Slip Jig
O:England
A:Northamptonshire
N:
Z:P Headford
K:D
d2e Bed cBA|d2e ced cBA|B2c d2e fdB|A2B c2d ecA|!
d2e Bed cBA|d2e Bed cBA|B2c d2e fdB|A2B c2d ecA:|!
|:a2^g af^d Bdf|g2f gec Ace|f2g f2e dcB|e2g e2d cBA|!
d2e Bed cBA|d2e Bed cBA|B2c d2e fdB|e2g e2d cBA:|]
W:MS includes Dance Instructions.
